X:1
T:Title
%%score { ( 1 3 ) | 2 }
L:1/8
Q:1/4=90
M:6/8
K:G
V:1 treble nm="Grand Piano"
V:3 treble 
V:2 bass 
V:1
 B>BB BAG | A2 G .E3 | [G,B,D] [B,DG]2 .[B,DG]3 | [A,DF] [FA]2 .[FA]3 | B>BB [DB][CA][B,G] | %5
w: Chas.~H.~Gabriel * * * * *|||||
 A2 G .E3 | D<GG F A2 | [B,DG]6 | [Bd]>[Ac][GB] [GB][FA][GB] | [Bd]2 [Ac] .[FA]3 | %10
w: |||||
 [Ac]>[GB][FA] [DF][EG][FA] | B2 c .B3 | de>d dcB | [EA]2 [EB] [Ec]2 c | B<DG F A2 | [B,DG]6 | %16
w: ||||||
 .B6 | G2 F .F3 | .c6 | A2 G .G3 | de>d dcB | [EA]2 [EB] [Ec]2 c | B<DG F A2 | %23
w: |||||||
[M:7/4] [B,DG]6 z2 z2 z4 |] %24
w: |
V:2
 [G,D]>[G,D][G,D] [G,D][G,C][G,B,] | [C,E,C]2 [C,E,C] .[C,G,C]3 | G,, G,,2 .G,,3 | %3
 D, [D,D]2 .[D,D]3 | [G,D]>[G,D][G,D] [G,,G,][G,,G,][G,,G,] | [C,E,C]2 [C,E,C] .[C,G,C]3 | %6
 [D,G,B,]<[D,B,D][D,B,D] [D,A,D] [D,CD]2 | G,,6 | G,>G,G, G,G,G, | D,2 D, .D,3 | D,>D,D, D,D,D, | %11
 [G,G]2 [G,E] .[G,D]3 | [G,B,G][G,CG]>[G,B,G] [G,B,G][K:bass][F,A,D][G,D] | %13
 [C,G,]2 [B,,^G,] [A,,A,]2 [D,A,D] | [G,D]<[G,B,][G,B,D] [D,A,D] [D,CD]2 | G,,6 | %16
 [G,DG]>[G,D][G,D] [G,D][G,CD][K:bass][G,B,D] | [D,B,D]2 [D,A,D] .[D,A,D]3 | %18
 [D,D]>[D,D][D,D] [D,D][D,D][D,CD] | [G,CD]2 [G,B,D] .[G,B,D]3 | %20
 [G,B,G][G,CG]>[G,B,G] [G,B,G][K:bass][F,A,D][G,D] | [C,G,]2 [B,,^G,] [A,,A,]2 [D,A,D] | %22
 [G,D]<[G,B,][G,B,D] [D,A,D] [D,CD]2 |[M:7/4] G,,6 z2 z2 z4 |] %24
V:3
 x6 | x6 | x6 | x6 | x6 | x6 | x6 | x6 | x6 | x6 | x6 | x6 | x6 | x6 | x6 | x6 | z z/ G/G GAG | %17
 x6 | F>FF F[GB]A | x6 | x6 | x6 | x6 |[M:7/4] x14 |] %24

